src/img/feature-2.svg

<svg width="63" height="63" viewBox="0 0 63 63" fill="none" xmlns="http://www.w3.org/2000/svg">
<path fill-rule="evenodd" clip-rule="evenodd" d="M59.178 21.7539L60.9049 42.6972C56.3945 54.5664 44.9186 63 31.4754 63C14.0926 63 0 48.8964 0 31.5C0 14.1036 14.0926 0 31.4754 0C37.7778 0 43.648 1.8543 48.5697 5.0463L59.178 21.7539Z" fill="#008DB3"/>
<path fill-rule="evenodd" clip-rule="evenodd" d="M48.5666 5.0421C48.9296 6.04695 49.2139 7.2891 48.106 6.70845C46.3433 5.7834 43.9911 4.6725 44.7475 5.39595C45.504 6.1194 45.7967 7.00455 44.6017 6.85755C43.4025 6.70845 41.3041 6.45645 40.384 7.80045C39.4597 9.1455 38.2017 8.8935 37.866 9.3975C37.5302 9.90045 37.0256 12.0866 36.1012 11.4146C35.179 10.7415 33.2464 8.36745 34.8433 9.04995C36.438 9.73245 38.2017 8.9775 36.7738 7.29645C35.3458 5.61435 33.835 6.2034 33.2475 5.2794C32.6589 4.35435 30.4766 3.1794 28.9647 5.5314C27.4529 7.8834 26.0858 10.9116 25.258 11.5416C24.4302 12.1706 22.6675 13.3476 22.9183 14.2716C23.1701 15.1967 23.254 17.4657 24.1784 16.7927C25.1027 16.1196 25.6902 15.8687 26.027 16.4567C26.3628 17.0457 26.2788 18.3897 26.9513 18.3057C26.9513 18.3057 28.4611 17.2137 28.5461 16.2887C28.63 15.3647 27.4539 14.7767 28.3782 13.4316C29.3026 12.0866 31.0673 9.47415 30.6466 10.7814C30.2269 12.0866 29.3026 13.9314 29.974 14.7767C30.6455 15.6219 34.2568 14.5247 32.576 15.3657C30.8973 16.2057 30.058 16.7937 29.7212 17.8857C29.3854 18.9788 29.1326 19.8198 28.2932 19.3988C27.4539 18.9777 26.4467 19.1468 25.9431 19.1468C25.4395 19.1468 25.2706 17.2137 24.5991 17.6348C23.9266 18.0537 24.8509 19.4513 24.0955 19.509C23.339 19.5678 23.2551 20.4068 22.4168 21.0798C21.5764 21.7529 20.4003 22.9289 19.6438 23.0969C18.8873 23.2649 20.8199 24.1059 20.4842 25.0299C20.1485 25.955 18.4698 25.871 17.8822 25.955C17.2947 26.039 17.7983 27.299 17.4626 28.055C17.1268 28.811 17.7983 29.567 18.8045 29.567C19.8127 29.567 20.9028 29.315 20.9889 28.3899C21.0728 27.4659 22.0811 25.8699 22.7536 26.2049C23.424 26.5409 24.9117 25.6169 25.2601 26.1219C25.6084 26.6249 27.5389 28.3899 27.3689 28.6419C27.199 28.8939 26.1949 29.399 26.6146 29.567C26.6146 29.567 26.8811 30.0962 27.1612 29.9838C27.4413 29.8715 27.9176 28.4991 28.1694 28.3311C28.4212 28.1631 28.5052 27.4344 28.0278 27.0984C27.5525 26.7624 25.7616 25.5014 26.1529 24.9134C26.5443 24.3254 27.5525 25.641 27.9439 26.0894C28.3373 26.5388 28.9521 27.0144 28.9805 27.9941C29.0088 28.9737 29.5691 28.9191 29.653 29.3948C29.7369 29.8715 29.9321 30.071 30.4934 29.9985C31.0526 29.9271 31.2761 28.6944 30.9687 28.3868C30.6612 28.0781 30.6612 27.405 31.2477 27.405C31.8363 27.405 32.5634 26.9021 32.5917 26.5934C32.6201 26.2857 33.1803 24.381 33.6 24.381C34.0197 24.381 34.2988 25.137 34.4666 25.5297C34.6345 25.9214 35.6984 25.221 35.5305 24.8294C35.3626 24.4367 35.6144 24.297 35.9239 24.297C36.2313 24.297 35.9795 25.1087 36.287 25.3617C36.5965 25.6137 38.0223 26.5388 37.547 27.0144C37.0717 27.4901 36.287 27.2108 35.7561 26.7897C35.2231 26.3708 33.8529 26.6217 33.4877 27.0417C33.1247 27.4617 32.8152 27.6581 32.2004 27.6864C31.5835 27.7137 31.6674 28.8351 32.2004 29.3108C32.7313 29.7875 33.4605 29.3675 33.9913 29.7035C34.5243 30.0395 35.3626 29.2551 35.5032 29.7875C35.6428 30.3198 35.4193 31.9158 34.8863 31.9725C34.3554 32.0282 32.6998 32.4209 31.4828 31.8602C30.2678 31.3005 29.0938 31.0769 28.9805 31.6638C28.8682 32.2529 28.8409 32.6802 28.0005 32.1584C27.1601 31.6365 26.4331 31.3278 25.9022 31.3278C25.3713 31.3278 25.343 30.4311 25.4552 29.6468C25.5654 28.8624 24.1658 29.1428 23.3569 29.3391C22.5458 29.5355 20.8388 30.1235 19.8306 30.1235C18.8223 30.1235 18.3187 30.3471 18.1498 30.7955C17.9809 31.2438 17.002 31.2438 16.9736 32.0849C16.9474 32.9259 17.1153 33.1695 16.2193 33.5234C15.3233 33.8783 15.0431 35.5026 14.5941 35.951C14.1471 36.4004 15.0431 37.464 14.5941 38.0247C14.1471 38.5854 13.7212 40.0418 14.4651 40.3778C15.211 40.7138 15.9381 42.1145 16.2749 42.6752C16.6106 43.2359 17.7301 43.6842 18.8506 43.5162C19.9691 43.3482 22.1534 42.6752 23.2173 43.1802C24.2812 43.6853 25.5675 43.5729 24.9527 44.6376C24.3357 45.7023 25.2317 47.0474 26.0165 47.8317C26.7992 48.6161 26.5201 50.4084 26.1267 51.0248C25.7353 51.6411 25.8476 52.7058 26.239 53.2665C26.6303 53.8262 26.9115 55.0032 26.9115 55.5083C26.9115 56.0112 27.7519 56.9646 27.862 57.9737C27.9743 58.9817 27.2472 60.1587 28.1978 60.1587C29.1504 60.1587 31.5583 60.27 31.7262 59.8227C31.894 59.3754 33.8529 57.749 34.3575 56.9646C34.8622 56.1803 35.9806 54.9475 35.6449 54.2199C35.3091 53.4912 35.7005 52.8749 36.7654 52.4832C37.8292 52.0905 37.7715 49.1211 37.2679 48.3368C36.7654 47.5524 37.717 45.8157 38.8931 45.255C40.0672 44.6954 42.8108 39.9326 41.9158 40.3253C41.0198 40.7169 39.1722 41.0529 38.5574 40.6602C37.9405 40.2686 34.3009 33.9003 34.8055 33.5265C35.3102 33.1527 38.2751 39.2564 38.7809 40.0439C39.2866 40.8324 44.2681 37.8032 44.8283 37.0745C45.3876 36.3468 44.4926 35.5625 44.1558 35.5625C43.819 35.5625 42.7006 34.7781 42.4205 35.2265C42.1403 35.6748 39.957 32.2004 40.7397 32.5364C41.5245 32.8724 43.0919 33.9371 44.4916 34.7214C45.8912 35.5058 47.6265 34.1618 48.6348 35.7305C49.6409 37.2992 50.3135 36.2345 50.2579 37.0199C50.2022 37.8053 51.5452 40.7736 51.9932 41.726C52.4401 42.6773 53.3928 41.3333 53.5051 40.2129C53.6152 39.0926 55.8552 37.3002 56.6379 36.6839C57.4227 36.0675 58.8779 36.9642 59.1035 38.2526C59.327 39.5409 60.3908 38.0279 60.3908 39.0369C60.3908 40.0449 60.2083 41.4876 60.9154 42.6993C62.2363 39.2165 62.9592 35.4417 62.9592 31.499C62.9592 20.4068 57.2297 10.6523 48.5718 5.03895" fill="#FFC942"/>
<path fill-rule="evenodd" clip-rule="evenodd" d="M15.1009 9.06148C14.5123 9.22423 13.8429 9.98548 13.0025 9.56548C12.1621 9.14548 10.4005 9.73243 11.4906 10.7415C12.5828 11.7505 12.1527 12.4225 13.1242 12.5065C14.0957 12.5905 14.8501 11.1625 15.5216 11.2465C16.193 11.3305 15.7954 8.86933 15.1009 9.06148Z" fill="#FFC942"/>
<path fill-rule="evenodd" clip-rule="evenodd" d="M40.619 50.127C39.9056 50.2057 40.0577 51.6957 39.275 51.8637C38.4902 52.0317 39.1586 52.7037 38.7976 53.2644C38.4346 53.824 38.2626 55.0011 38.7976 55.7298C39.3306 56.4574 39.5562 56.5142 40.1154 55.3381C40.6746 54.1611 42.1288 49.959 40.619 50.127Z" fill="#FFC942"/>
<path fill-rule="evenodd" clip-rule="evenodd" d="M19.5672 16.0335C19.2661 16.0146 18.9503 16.2298 18.6146 16.2855C18.2809 16.3422 18.0837 16.7611 18.0554 17.2378C18.0291 17.7135 18.8958 17.9109 18.559 18.2185C18.2232 18.5272 16.5708 18.8349 16.8236 19.3389C17.0765 19.8429 17.3828 20.3196 17.0471 20.8509C16.7135 21.3832 17.3828 21.4399 17.9714 21.2436C18.56 21.0472 18.9797 20.3185 18.9241 19.8429C18.8664 19.3662 19.8201 19.2538 19.5672 19.5909C19.3144 19.9279 18.7562 21.0588 19.0342 21.3475C19.3154 21.6352 18.1676 22.1676 18.5873 22.365C19.007 22.5613 20.1097 21.5239 20.7979 21.6919C21.4862 21.8599 21.6645 21.5239 21.7485 20.9349C21.8324 20.3469 20.8819 19.5342 20.5461 18.8622C20.2114 18.1902 20.4916 16.0891 19.5672 16.0335Z" fill="#FFC942"/>
</svg>

<svg width="63" height="63" fill="none" xmlns="http://www.w3.org/2000/svg"><path fill-rule="evenodd" clip-rule="evenodd" d="M59.178 21.754l1.727 20.943C56.395 54.567 44.919 63 31.475 63 14.093 63 0 48.896 0 31.5S14.093 0 31.475 0A31.311 31.311 0 0 1 48.57 5.046l10.608 16.708z" fill="#008DB3"/><path fill-rule="evenodd" clip-rule="evenodd" d="M48.567 5.042c.363 1.005.647 2.247-.461 1.666-1.763-.925-4.115-2.035-3.358-1.312.756.723 1.049 1.609-.146 1.462-1.2-.15-3.298-.402-4.218.942-.924 1.346-2.182 1.093-2.518 1.598-.336.502-.84 2.689-1.765 2.017-.922-.673-2.855-3.048-1.258-2.365 1.595.682 3.359-.073 1.93-1.754-1.427-1.682-2.938-1.093-3.526-2.017-.588-.925-2.77-2.1-4.282.252-1.512 2.352-2.88 5.38-3.707 6.01-.828.63-2.59 1.807-2.34 2.73.252.926.336 3.195 1.26 2.522.925-.673 1.512-.924 1.849-.336.336.589.252 1.933.924 1.849 0 0 1.51-1.092 1.595-2.017.084-.924-1.092-1.512-.168-2.857.925-1.345 2.69-3.958 2.269-2.65-.42 1.305-1.344 3.15-.673 3.995.671.845 4.283-.252 2.602.589-1.679.84-2.518 1.428-2.855 2.52-.336 1.093-.588 1.934-1.428 1.513-.84-.421-1.846-.252-2.35-.252s-.672-1.933-1.344-1.512c-.672.419.252 1.816-.503 1.874-.757.059-.84.898-1.68 1.57-.84.674-2.016 1.85-2.772 2.018-.757.168 1.176 1.009.84 1.933-.336.925-2.014.841-2.602.925-.587.084-.084 1.344-.42 2.1-.335.756.336 1.512 1.343 1.512 1.008 0 2.098-.252 2.184-1.177.084-.924 1.092-2.52 1.765-2.185.67.336 2.158-.588 2.506-.083.348.503 2.279 2.268 2.109 2.52-.17.252-1.174.757-.754.925 0 0 .266.53.546.417.28-.113.757-1.485 1.008-1.653.252-.168.336-.897-.141-1.233-.476-.336-2.266-1.597-1.875-2.185.391-.588 1.4.728 1.79 1.176.394.45 1.01.925 1.037 1.905.029.98.59.925.673 1.4.084.478.28.677.84.605.56-.072.783-1.305.476-1.612-.308-.309-.308-.982.279-.982.588 0 1.315-.503 1.344-.812.028-.307.588-2.212 1.008-2.212.42 0 .699.756.867 1.149.168.391 1.231-.309 1.064-.7-.168-.393.083-.533.393-.533.307 0 .056.812.363 1.065.31.252 1.735 1.177 1.26 1.652-.475.476-1.26.197-1.79-.224-.534-.42-1.904-.168-2.27.252-.362.42-.672.616-1.287.644-.617.028-.533 1.15 0 1.625.531.477 1.26.056 1.791.392.533.337 1.372-.448 1.512.085.14.532-.084 2.128-.617 2.184-.53.056-2.186.449-3.403-.112-1.215-.56-2.39-.783-2.503-.196-.112.589-.14 1.016-.98.494-.84-.521-1.567-.83-2.098-.83-.53 0-.559-.897-.447-1.681.11-.785-1.29-.504-2.098-.308-.811.197-2.518.785-3.526.785-1.009 0-1.512.223-1.681.672-.17.448-1.148.448-1.176 1.289-.027.84.141 1.084-.755 1.438-.896.355-1.176 1.98-1.625 2.428-.447.45.45 1.513 0 2.074-.447.56-.873 2.017-.129 2.353.746.336 1.473 1.736 1.81 2.297.336.56 1.455 1.01 2.576.841 1.118-.168 3.302-.84 4.366-.336 1.064.505 2.35.393 1.736 1.458-.617 1.064.279 2.41 1.064 3.194.782.784.503 2.576.11 3.193-.392.616-.28 1.68.112 2.242.391.56.672 1.736.672 2.241 0 .503.84 1.457.951 2.466.112 1.008-.615 2.185.336 2.185.952 0 3.36.111 3.528-.336.168-.448 2.127-2.074 2.632-2.858.504-.785 1.623-2.018 1.287-2.745-.336-.729.055-1.345 1.12-1.737 1.064-.392 1.007-3.362.503-4.146-.503-.785.449-2.521 1.625-3.082 1.174-.56 3.918-5.322 3.023-4.93-.896.392-2.744.728-3.359.335-.617-.391-4.256-6.76-3.752-7.133.505-.374 3.47 5.73 3.976 6.517.506.788 5.487-2.24 6.047-2.97.56-.727-.335-1.511-.672-1.511s-1.455-.785-1.736-.337c-.28.449-2.463-3.026-1.68-2.69.785.336 2.352 1.401 3.752 2.185 1.4.785 3.135-.56 4.143 1.01 1.006 1.568 1.678.503 1.623 1.289-.056.785 1.287 3.754 1.735 4.706.447.951 1.4-.393 1.512-1.513.11-1.12 2.35-2.913 3.133-3.53.785-.615 2.24.281 2.465 1.57.224 1.288 1.288-.225 1.288.784 0 1.008-.183 2.45.524 3.662a31.518 31.518 0 0 0 2.044-11.2c0-11.092-5.73-20.847-14.387-26.46M15.1 9.061c-.588.163-1.257.924-2.098.504-.84-.42-2.602.167-1.511 1.177 1.092 1.008.662 1.68 1.633 1.764.972.085 1.726-1.344 2.398-1.26.671.085.273-2.377-.421-2.185z" fill="#FFC942"/><path fill-rule="evenodd" clip-rule="evenodd" d="M40.619 50.127c-.713.079-.561 1.569-1.344 1.737-.785.168-.116.84-.477 1.4-.363.56-.535 1.737 0 2.466.533.727.758.784 1.317-.392.56-1.177 2.014-5.379.504-5.211zM19.567 16.034c-.3-.02-.617.196-.952.252-.334.056-.531.475-.56.952-.026.476.84.673.504.98-.336.31-1.988.617-1.735 1.12.252.505.559.982.223 1.513-.334.532.336.589.924.393.589-.197 1.009-.925.953-1.401-.058-.477.896-.59.643-.252-.253.337-.81 1.468-.533 1.756.281.288-.866.82-.447 1.018.42.196 1.523-.841 2.21-.673.69.168.867-.168.951-.757.084-.588-.866-1.4-1.202-2.073-.335-.672-.054-2.773-.979-2.828z" fill="#FFC942"/></svg>
